!!!!SEGMENT: pl-gd--ee-2628--007-014_stabile-annibale--sacrarum-modulationum-apollinaris-inclyti-a-8.krn
!!!cenid: 15xx:1103
!!!COM: Stabile, Annibale
!!!COM-rismID: pe30009662
!!!CDT: ~1535-1595/04
!!!CNT: Italian
!!!GTL: Sacrarum modulationum
!!!OTL: Apollinaris inclyti a 8
!!!OMV: 014
!!!PDT: 1585
!!!AGN:
!!!SMS-siglum: PL-GD
!!!SMS-shelfmark: Ee 2628
!!!SMS-shelfwork: 007-014 G
!!!SMS-variant:
!!!SMS-altvar:
!!!NIFC-rismSourceID: 1001203361
!!!NIFC-rismChildID: 990060529
!!!NIFC-islandoraID: pl-gd:66139
!!!URL-pdf-islandora: https://repozytorium.nifc.pl/islandora/object/pl-gd%3A66139/datastream/PDF/view
!!!URL-scan: https://polish.musicsources.pl/pl/lokalizacje/galeria/klocki-introligatorskie/673 @EN{Scan on Polish Music Sources Website} @PL{Skany w portalu Dziedzictwo Muzyki Polskiej w otwartym dostępie}
!!!ONB-nifc: UWAGA: Cantus: s. 102-113, Tenore: s. 258-269, Basso: s. 414-425, Quinto: s. 736-747, Sextus: s. 624-632. Dla głosu Alto proszę skorzystać z https://pbc.gda.pl/dlibra/publication/87583/edition/79412/content, s. 25-48. Uwaga: utwory podzielone wg spisu treści dostępnych na końcu ksiąg – proszę sprawdzać sąsiednie tytuły i zwracać uwagę na liczbę głosów. Głosy Quinto i Sextus proszę umieszczać wg ambitusu (może się różnić w zależności od utworu).
!!!AIN: 2 alto 2 bass 2 soprn 1 tenor 1 vox
!!!key: G
**kern	**text	**kern	**text	**kern	**text	**kern	**text	**kern	**text	**kern	**text	**kern	**text	**kern	**text
*part8	*part8	*part7	*part7	*part6	*part6	*part5	*part5	*part4	*part4	*part3	*part3	*part2	*part2	*part1	*part1
*staff8	*staff8	*staff7	*staff7	*staff6	*staff6	*staff5	*staff5	*staff4	*staff4	*staff3	*staff3	*staff2	*staff2	*staff1	*staff1
*I"BASSVS Secundus	*	*I"BASSVS	*	*I"TENOR	*	*I"SEXTVS	*	*I"ALTVS Secundus	*	*I"ALTVS	*	*I"CANTVS Secundus	*	*I"CANTVS	*
*I'B 2	*	*I'B 1	*	*I'T	*	*I'V 6	*	*I'A 2	*	*I'A 1	*	*I'S 2	*	*I'S 1	*
*ICvox	*	*ICvox	*	*ICvox	*	*ICvox	*	*ICvox	*	*ICvox	*	*ICvox	*	*ICvox	*
*Ibass	*	*Ibass	*	*Itenor	*	*Ivox	*	*Ialto	*	*Ialto	*	*Isoprn	*	*Isoprn	*
*clefF4	*	*clefF4	*	*clefC4	*	*clefC4	*	*clefC3	*	*clefC3	*	*clefC1	*	*clefC1	*
*k[]	*	*k[]	*	*k[]	*	*k[]	*	*k[]	*	*k[]	*	*k[]	*	*k[]	*
*G:	*	*G:	*	*G:	*	*G:	*	*G:	*	*G:	*	*G:	*	*G:	*
*M4/4	*	*M4/4	*	*M4/4	*	*M4/4	*	*M4/4	*	*M4/4	*	*M4/4	*	*M4/4	*
*met(C)	*	*met(C)	*	*met(C)	*	*met(C)	*	*met(C)	*	*met(C)	*	*met(C)	*	*met(C)	*
=1-	=1-	=1-	=1-	=1-	=1-	=1-	=1-	=1-	=1-	=1-	=1-	=1-	=1-	=1-	=1-
!LO:TX:a:t=Octo vocum.	!	!LO:TX:a:t=Octo vocum.	!	!LO:TX:a:t=Octo vocum.	!	!LO:TX:a:t=Octo vocum.	!	!LO:TX:a:t=Octo Vocum.	!	!LO:TX:a:t=Octo vocum.	!	!LO:TX:a:t=Octo vocum.	!	!LO:TX:a:t=Octo vocum.	!
00r	.	00r	.	00r	.	00r	.	00r	.	1d	A-	00r	.	00r	.
=2-	=2-	=2-	=2-	=2-	=2-	=2-	=2-	=2-	=2-	=2-	=2-	=2-	=2-	=2-	=2-
.	.	.	.	.	.	.	.	.	.	2d\	-Pol-	.	.	.	.
.	.	.	.	.	.	.	.	.	.	2d\	-li-	.	.	.	.
=3-	=3-	=3-	=3-	=3-	=3-	=3-	=3-	=3-	=3-	=3-	=3-	=3-	=3-	=3-	=3-
.	.	.	.	.	.	.	.	.	.	1e	-na-	.	.	.	.
=4-	=4-	=4-	=4-	=4-	=4-	=4-	=4-	=4-	=4-	=4-	=4-	=4-	=4-	=4-	=4-
.	.	.	.	.	.	.	.	.	.	2d\	-ris	.	.	.	.
.	.	.	.	.	.	.	.	.	.	1c\	in-	.	.	.	.
=5-	=5-	=5-	=5-	=5-	=5-	=5-	=5-	=5-	=5-	=5-	=5-	=5-	=5-	=5-	=5-
00r	.	00r	.	00r	.	00r	.	00r	.	.	.	00r	.	1g	A-
.	.	.	.	.	.	.	.	.	.	4B/	.	.	.	.	.
.	.	.	.	.	.	.	.	.	.	4A/	.	.	.	.	.
=6-	=6-	=6-	=6-	=6-	=6-	=6-	=6-	=6-	=6-	=6-	=6-	=6-	=6-	=6-	=6-
*	*	*	*	*	*	*	*	*	*	*lig	*	*	*	*	*
.	.	.	.	.	.	.	.	.	.	1.B	.	.	.	2g/	-Pol-
.	.	.	.	.	.	.	.	.	.	.	.	.	.	2g/	-li-
=7-	=7-	=7-	=7-	=7-	=7-	=7-	=7-	=7-	=7-	=7-	=7-	=7-	=7-	=7-	=7-
.	.	.	.	.	.	.	.	.	.	.	.	.	.	1a	-na-
*	*	*	*	*	*	*	*	*	*	*Xtuplet	*	*	*	*	*
*	*	*	*	*	*	*	*	*	*	*col	*	*	*	*	*
.	.	.	.	.	.	.	.	.	.	3A/	.	.	.	.	.
*	*	*	*	*	*	*	*	*	*	*Xlig	*	*	*	*	*
.	.	.	.	.	.	.	.	.	.	6B/	.	.	.	.	.
*	*	*	*	*	*	*	*	*	*	*Xcol	*	*	*	*	*
=8-	=8-	=8-	=8-	=8-	=8-	=8-	=8-	=8-	=8-	=8-	=8-	=8-	=8-	=8-	=8-
.	.	.	.	.	.	.	.	.	.	2c/	.	.	.	2g/	-ris
.	.	.	.	.	.	.	.	.	.	2d\	.	.	.	1f/	in-
=9-	=9-	=9-	=9-	=9-	=9-	=9-	=9-	=9-	=9-	=9-	=9-	=9-	=9-	=9-	=9-
00r	.	0r	.	00r	.	00r	.	00r	.	2A/	.	00r	.	.	.
.	.	.	.	.	.	.	.	.	.	1d\	.	.	.	4e/	.
.	.	.	.	.	.	.	.	.	.	.	.	.	.	4d/	.
=10-	=10-	=10-	=10-	=10-	=10-	=10-	=10-	=10-	=10-	=10-	=10-	=10-	=10-	=10-	=10-
.	.	.	.	.	.	.	.	.	.	.	.	.	.	2e/	.
.	.	.	.	.	.	.	.	.	.	2c#X/	-cly-	.	.	2e/	-cly-
=11-	=11-	=11-	=11-	=11-	=11-	=11-	=11-	=11-	=11-	=11-	=11-	=11-	=11-	=11-	=11-
.	.	1G	A-	.	.	.	.	.	.	2d\	-ti	.	.	2d/	-ti
*	*	*	*	*	*	*	*	*	*	*	*ij	*	*	*	*ij
.	.	.	.	.	.	.	.	.	.	2B/	A-	.	.	2dd\	A-
=12-	=12-	=12-	=12-	=12-	=12-	=12-	=12-	=12-	=12-	=12-	=12-	=12-	=12-	=12-	=12-
.	.	2G\	-Po-	.	.	.	.	.	.	2d\	-pol-	.	.	2b\	-pol-
.	.	2G\	-li-	.	.	.	.	.	.	1e\	-li-	.	.	2b\	-li-
=13-	=13-	=13-	=13-	=13-	=13-	=13-	=13-	=13-	=13-	=13-	=13-	=13-	=13-	=13-	=13-
00r	.	1A	-na-	0r	.	00r	.	00r	.	.	.	00r	.	1cc	-na-
.	.	.	.	.	.	.	.	.	.	4d\	-na-	.	.	.	.
.	.	.	.	.	.	.	.	.	.	4cny/	-ris	.	.	.	.
*	*	*	*	*	*	*	*	*	*	*custos:d	*	*	*	*	*
!	!	!	!	!	!	!	!	!	!	!LO:LB:g=original	!	!	!	!	!
=14-	=14-	=14-	=14-	=14-	=14-	=14-	=14-	=14-	=14-	=14-	=14-	=14-	=14-	=14-	=14-
.	.	2G\	-ris	.	.	.	.	.	.	2.d\	in-	.	.	2b\	-ris
.	.	1F\	in-	.	.	.	.	.	.	.	.	.	.	1a\	in-
.	.	.	.	.	.	.	.	.	.	8c/	.	.	.	.	.
.	.	.	.	.	.	.	.	.	.	8B/	.	.	.	.	.
=15-	=15-	=15-	=15-	=15-	=15-	=15-	=15-	=15-	=15-	=15-	=15-	=15-	=15-	=15-	=15-
.	.	.	.	1c	A-	.	.	.	.	4A/	.	.	.	.	.
.	.	.	.	.	.	.	.	.	.	4B/	.	.	.	.	.
.	.	4E\	.	.	.	.	.	.	.	2c/	.	.	.	4g/	.
.	.	4D/	.	.	.	.	.	.	.	.	.	.	.	4f/	.
=16-	=16-	=16-	=16-	=16-	=16-	=16-	=16-	=16-	=16-	=16-	=16-	=16-	=16-	=16-	=16-
*	*	*lig	*	*	*	*	*	*	*	*lig	*	*	*	*	*
.	.	1E	.	2c\	-Pol-	.	.	.	.	1G	cly-	.	.	2g/	.
.	.	.	.	2c\	-li-	.	.	.	.	.	.	.	.	2g/	-cly-
*	*	*Xtuplet	*	*	*	*	*	*	*	*	*	*	*	*custos:f#	*
!	!	!	!	!	!	!	!	!	!	!	!	!	!	!LO:LB:g=original	!
=17-	=17-	=17-	=17-	=17-	=17-	=17-	=17-	=17-	=17-	=17-	=17-	=17-	=17-	=17-	=17-
*	*	*col	*	*	*	*	*	*	*	*	*	*	*	*	*
00r	.	3%2D	.	1d	-na-	00r	.	0r	.	1.A	.	00r	.	1f#X	-ti
*	*	*Xlig	*	*	*	*	*	*	*	*Xlig	*	*	*	*	*Xij
.	.	3E\	.	.	.	.	.	.	.	.	.	.	.	.	.
*	*	*Xcol	*	*	*	*	*	*	*	*	*	*	*	*	*
=18-	=18-	=18-	=18-	=18-	=18-	=18-	=18-	=18-	=18-	=18-	=18-	=18-	=18-	=18-	=18-
.	.	2F\	.	2c\	-ris	.	.	.	.	.	.	.	.	1r	.
.	.	2G\	.	1B\	in-	.	.	.	.	2G/	.	.	.	.	.
=19-	=19-	=19-	=19-	=19-	=19-	=19-	=19-	=19-	=19-	=19-	=19-	=19-	=19-	=19-	=19-
.	.	2D/	.	.	.	.	.	1r	.	2F#X/	.	.	.	1dd	A-
.	.	1G\	.	4A/	.	.	.	.	.	2G/	.	.	.	.	.
.	.	.	.	4G/	.	.	.	.	.	.	.	.	.	.	.
=20-	=20-	=20-	=20-	=20-	=20-	=20-	=20-	=20-	=20-	=20-	=20-	=20-	=20-	=20-	=20-
.	.	.	.	2A/	.	.	.	1d	A-	1D	-ti	.	.	2dd\	-pol-
.	.	2F#X\	-cly-	2A/	-cly-	.	.	.	.	.	.	.	.	2dd\	-li-
=21-	=21-	=21-	=21-	=21-	=21-	=21-	=21-	=21-	=21-	=21-	=21-	=21-	=21-	=21-	=21-
00r	.	2G\	-ti	0G	-ti	00r	.	2d\	-Po-	00r	.	1g	A-	2.b\	-na-
.	.	2G\	A-	.	.	.	.	2d\	-li-	.	.	.	.	.	.
.	.	.	.	.	.	.	.	.	.	.	.	.	.	8a\	.
.	.	.	.	.	.	.	.	.	.	.	.	.	.	8b\	.
*	*	*custos:C	*	*	*ij	*	*	*	*	*	*Xij	*	*	*	*
!	!	!LO:LB:g=original	!	!	!	!	!	!	!	!	!	!	!	!	!
=22-	=22-	=22-	=22-	=22-	=22-	=22-	=22-	=22-	=22-	=22-	=22-	=22-	=22-	=22-	=22-
.	.	2C/	-po-	.	.	.	.	1e	-na-	.	.	2g/	-Pol-	2cc\	.
.	.	2E\	-li-	.	.	.	.	.	.	.	.	2g/	-li-	2b\	-ris
=23-	=23-	=23-	=23-	=23-	=23-	=23-	=23-	=23-	=23-	=23-	=23-	=23-	=23-	=23-	=23-
.	.	2.Fny\	-na-	2r	.	.	.	2d\	-ris	.	.	1a	-na-	1r	.
.	.	.	.	2A/	A-	.	.	2.c/	in-	.	.	.	.	.	.
.	.	4F\	-ris	.	.	.	.	.	.	.	.	.	.	.	.
=24-	=24-	=24-	=24-	=24-	=24-	=24-	=24-	=24-	=24-	=24-	=24-	=24-	=24-	=24-	=24-
.	.	2E\	in	1c	-po-	.	.	.	.	.	.	2g/	-ris	2r	.
.	.	.	.	.	.	.	.	4B/	.	.	.	.	.	.	.
.	.	2F\	cly-	.	.	.	.	1A/	.	.	.	1f/	in-	2a\	A-
=25-	=25-	=25-	=25-	=25-	=25-	=25-	=25-	=25-	=25-	=25-	=25-	=25-	=25-	=25-	=25-
0r	.	1D	-ti	2d\	-li-	00r	.	.	.	00r	.	.	.	2.fny/	-pol-
.	.	.	.	1d\	-na-	.	.	2B-X/	-cly-	.	.	4e/	.	.	.
.	.	.	.	.	.	.	.	.	.	.	.	4d/	.	4g/	-li-
=26-	=26-	=26-	=26-	=26-	=26-	=26-	=26-	=26-	=26-	=26-	=26-	=26-	=26-	=26-	=26-
.	.	1r	.	.	.	.	.	1A	-ti	.	.	2e/	.	2a\	-na-
.	.	.	.	2c#X\	-ris	.	.	.	.	.	.	2e/	-cly-	2a\	ris
*	*	*	*	*custos:d	*	*	*	*	*	*	*	*	*	*	*
!	!	!	!	!LO:LB:g=original	!	!	!	!	!	!	!	!	!	!	!
=27-	=27-	=27-	=27-	=27-	=27-	=27-	=27-	=27-	=27-	=27-	=27-	=27-	=27-	=27-	=27-
1G	A-	00r	.	1.d	in	.	.	1r	.	.	.	2d/	-ti	2.b\	in-
.	.	.	.	.	.	.	.	.	.	.	.	2dd\	A-	.	.
.	.	.	.	.	.	.	.	.	.	.	.	.	.	4cc\	-cly-
=28-	=28-	=28-	=28-	=28-	=28-	=28-	=28-	=28-	=28-	=28-	=28-	=28-	=28-	=28-	=28-
2G\	-Pol-	.	.	.	.	.	.	2r	.	.	.	2b\	-pol-	1dd	-ti
2G\	-li-	.	.	2d\	cly-	.	.	2g\	A-	.	.	2b\	-li-	.	.
*	*	*	*	*	*	*	*	*	*	*	*	*	*	*	*
=29-	=29-	=29-	=29-	=29-	=29-	=29-	=29-	=29-	=29-	=29-	=29-	=29-	=29-	=29-	=29-
1A	-na-	.	.	1cny	ti	1r	.	2e\	-po-	00r	.	1cc	-na-	00r	.
.	.	.	.	.	.	.	.	2f#X\	-li-	.	.	.	.	.	.
=30-	=30-	=30-	=30-	=30-	=30-	=30-	=30-	=30-	=30-	=30-	=30-	=30-	=30-	=30-	=30-
2G\	-ris	.	.	1r	.	1d	A-	2g\	-na-	.	.	2b\	-ris	.	.
*	*	*	*	*	*Xij	*	*	*	*	*	*	*custos:a	*	*	*
!	!	!	!	!	!	!	!	!f	!	!	!	!LO:LB:g=original	!	!	!
1F\	in-	.	.	.	.	.	.	2a\	-ris	.	.	2.a\	in-	.	.
*	*	*	*	*	*	*	*	*custos:f	*	*	*	*	*	*	*
!	!	!	!	!	!	!	!	!LO:LB:g=original	!	!	!	!	!	!	!
=31-	=31-	=31-	=31-	=31-	=31-	=31-	=31-	=31-	=31-	=31-	=31-	=31-	=31-	=31-	=31-
*	*	*	*	*	*	*	*	*lig	*	*	*	*	*	*	*
.	.	00r	.	00r	.	2d\	-Po-	1fny	in-	.	.	.	.	.	.
.	.	.	.	.	.	.	.	.	.	.	.	4g/	.	.	.
4E\	.	.	.	.	.	2d\	-li-	.	.	.	.	4a\	.	.	.
4D/	.	.	.	.	.	.	.	.	.	.	.	4b\	.	.	.
=32-	=32-	=32-	=32-	=32-	=32-	=32-	=32-	=32-	=32-	=32-	=32-	=32-	=32-	=32-	=32-
2C/	.	.	.	.	.	1e	-na-	1g	.	.	.	1cc	.	.	.
2C/	-cly-	.	.	.	.	.	.	.	.	.	.	.	.	.	.
*	*	*	*	*	*	*	*	*Xlig	*	*	*	*	*	*	*
=33-	=33-	=33-	=33-	=33-	=33-	=33-	=33-	=33-	=33-	=33-	=33-	=33-	=33-	=33-	=33-
2D/	-ti	.	.	.	.	2d\	-ris	2.f\	.	0r	.	2b-X\	.	0r	.
1F\	in-	.	.	.	.	2.c\	in-	.	.	.	.	2.a\	.	.	.
.	.	.	.	.	.	.	.	8e\	.	.	.	.	.	.	.
.	.	.	.	.	.	.	.	8d\	.	.	.	.	.	.	.
=34-	=34-	=34-	=34-	=34-	=34-	=34-	=34-	=34-	=34-	=34-	=34-	=34-	=34-	=34-	=34-
.	.	.	.	.	.	.	.	2c/	.	.	.	.	.	.	.
.	.	.	.	.	.	4B\	.	.	.	.	.	4g/	.	.	.
2E\	-cly-	.	.	.	.	4A/	.	2c/	-cly-	.	.	1g\	.	.	.
.	.	.	.	.	.	4G/	.	.	.	.	.	.	.	.	.
*	*	*	*	*	*	*	*	*	*	*	*	*	*	*custos:a	*
!	!	!	!	!	!	!	!	!	!	!	!	!	!	!LO:LB:g=original	!
=35-	=35-	=35-	=35-	=35-	=35-	=35-	=35-	=35-	=35-	=35-	=35-	=35-	=35-	=35-	=35-
1D	-ti	2r	.	2r	.	2A/	.	1d	-ti	2r	.	.	.	2r	.
.	.	2D/	Lux	2.D/	Lux	2A/	-cly-	.	.	2d\	Lux	2f#X/	cly-	2a\	Lux
*custos:G	*	*	*	*	*	*	*	*	*	*	*	*	*	*	*
!LO:LB:g=original	!	!	!	!	!	!	!	!	!	!	!	!	!	!	!
=36-	=36-	=36-	=36-	=36-	=36-	=36-	=36-	=36-	=36-	=36-	=36-	=36-	=36-	=36-	=36-
2r	.	2BB/	al-	.	.	1G	-ti	2r	.	2d\	al-	2g/	-ti	2b\	al-
.	.	.	.	2G/	al-	.	.	.	.	.	.	.	.	.	.
2G\	Lux	2C/	-ma	.	.	.	.	2e\	Lux	2c/	-ma	4r	.	2g/	-ma
.	.	.	.	2E/	-ma	.	.	.	.	.	.	4ee\	Lux	.	.
=37-	=37-	=37-	=37-	=37-	=37-	=37-	=37-	=37-	=37-	=37-	=37-	=37-	=37-	=37-	=37-
2A\	al-	2AA/	mun-	.	.	4r	.	2e\	al-	4e\	mun-	2cc#X\	al-	4r	.
.	.	.	.	2A/	mun-	4A/	Lux	.	.	4A/	-do	.	.	2a\	mun-
*	*	*	*	*	*	*	*	*	*	*custos:a	*	*	*	*	*
!	!	!	!	!	!	!	!	!	!	!LO:LB:g=original	!	!	!	!	!
2F#X\	-ma	2D/	-do	.	.	4A/	al-	2d\	-ma	2.a\	pro-	2dd\	-ma	.	.
.	.	.	.	4D/	-do	4A/	-ma	.	.	.	.	.	.	4a\	-do
*	*	*	*	*	*	*custos:B	*	*	*	*	*	*	*	*	*
!	!	!	!	!	!	!LO:LB:g=original	!	!	!	!	!	!	!	!	!
=38-	=38-	=38-	=38-	=38-	=38-	=38-	=38-	=38-	=38-	=38-	=38-	=38-	=38-	=38-	=38-
2G\	mun-	2.GG/	pro-	1.D	pro-	2B\	mun-	2d\	mun-	.	.	2bny\	mun-	1.dd	pro-
.	.	.	.	.	.	.	.	.	.	4g\	.	.	.	.	.
2G\	-do	.	.	.	.	2G/	-do	2d\	-do	1g\	.	2b\	-do	.	.
.	.	4GG/	-di-	.	.	.	.	.	.	.	.	.	.	.	.
=39-	=39-	=39-	=39-	=39-	=39-	=39-	=39-	=39-	=39-	=39-	=39-	=39-	=39-	=39-	=39-
2.D/	pro-	1D	-ÿt	.	.	2.A/	pro-	2.d\	pro-	.	.	2.a\	pro-	.	.
.	.	.	.	2D/	-di-	.	.	.	.	2f#X\	-di-	.	.	2dd\	-di-
4D/	-di-	.	.	.	.	4A/	-di-	4d\	-di-	.	.	4a\	-di-	.	.
*	*	*	*	*	*	*	*	*	*	*	*	*custos:b	*	*	*
!	!	!	!	!	!	!	!	!	!	!	!	!LO:LB:g=original	!	!	!
=40-	=40-	=40-	=40-	=40-	=40-	=40-	=40-	=40-	=40-	=40-	=40-	=40-	=40-	=40-	=40-
1GG	-ÿt	2r	.	1D	-ÿt	1G	-ÿt	2d\	-ÿt	0g	-ÿt	1b	-it	2dd\	-ÿt
.	.	2G\	Vos	.	.	.	.	2d\	Vos	.	.	.	.	2b\	Vos
*	*	*custos:C	*	*	*	*	*	*	*	*	*	*	*	*	*
!	!	!LO:LB:g=original	!	!	!	!	!	!	!	!	!	!	!	!	!
=41-	=41-	=41-	=41-	=41-	=41-	=41-	=41-	=41-	=41-	=41-	=41-	=41-	=41-	=41-	=41-
0r	.	4C/	de	00r	.	2r	.	2e\	de	.	.	0r	.	1cc	de
.	.	4D/	.	.	.	.	.	.	.	.	.	.	.	.	.
.	.	4E\	.	.	.	2e\	Vos	2g\	bea-	.	.	.	.	.	.
.	.	4F\	.	.	.	.	.	.	.	.	.	.	.	.	.
=42-	=42-	=42-	=42-	=42-	=42-	=42-	=42-	=42-	=42-	=42-	=42-	=42-	=42-	=42-	=42-
.	.	2G\	be-	.	.	2d\	de	2g\	-tis	0r	.	.	.	2b\	be-
*	*	*	*	*	*	*	*	*custos:e	*	*	*	*	*	*	*
!	!	!	!	!	!	!	!	!LO:LB:g=original	!	!	!	!	!	!	!
.	.	2A\	-a-	.	.	2c\	be-	2e\	ſe-	.	.	.	.	1a\	-a-
=43-	=43-	=43-	=43-	=43-	=43-	=43-	=43-	=43-	=43-	=43-	=43-	=43-	=43-	=43-	=43-
1r	.	2F\	-tis	.	.	2d\	-a-	4f\	.	.	.	1r	.	.	.
.	.	.	.	.	.	.	.	4e\	.	.	.	.	.	.	.
.	.	2G\	ſe-	.	.	2B\	-tis	4d\	.	.	.	.	.	2g/	-tis
.	.	.	.	.	.	.	.	4c/	.	.	.	.	.	.	.
=44-	=44-	=44-	=44-	=44-	=44-	=44-	=44-	=44-	=44-	=44-	=44-	=44-	=44-	=44-	=44-
2r	.	2.D/	-di-	.	.	2.A/	ſe-	2d\	.	2r	.	2r	.	2.f#X/	ſe-
2D/	Vos	.	.	.	.	.	.	2d\	-di-	2d\	Vos	2a\	Vos	.	.
.	.	4D/	.	.	.	4A/	-di-	.	.	.	.	.	.	4f#/	-di-
=45-	=45-	=45-	=45-	=45-	=45-	=45-	=45-	=45-	=45-	=45-	=45-	=45-	=45-	=45-	=45-
4GG/	de	1D	-bus	2r	.	1G	-bus	1Bny	-bus	2.d\	de	2b\	de	1g	-bus
4AA/	.	.	.	.	.	.	.	.	.	.	.	.	.	.	.
4BB/	.	.	.	2D/	Vos	.	.	.	.	.	.	2dd\	be-	.	.
4C/	.	.	.	.	.	.	.	.	.	8c/	.	.	.	.	.
.	.	.	.	.	.	.	.	.	.	8B/	.	.	.	.	.
=46-	=46-	=46-	=46-	=46-	=46-	=46-	=46-	=46-	=46-	=46-	=46-	=46-	=46-	=46-	=46-
2D/	.	1r	.	2F#X/	de	1r	.	1r	.	2A/	.	2dd\	-a-	1r	.
2E\	be-	.	.	2G/	be-	.	.	.	.	2e\	be-	2b\	-tis	.	.
*custos:C	*	*	*	*	*	*	*	*	*	*	*	*	*	*	*
!LO:LB:g=original	!	!	!	!	!	!	!	!	!	!	!	!	!	!	!
=47-	=47-	=47-	=47-	=47-	=47-	=47-	=47-	=47-	=47-	=47-	=47-	=47-	=47-	=47-	=47-
2C/	-a-	0r	.	2.A/	-a-	0r	.	0r	.	2e\	-a-	4ccny\	ſe-	0r	.
.	.	.	.	.	.	.	.	.	.	.	.	4b\	.	.	.
2D/	-tis	.	.	.	.	.	.	.	.	2fny\	-tis	4a\	.	.	.
.	.	.	.	4B\	-tis	.	.	.	.	.	.	4g/	.	.	.
*	*	*	*	*custos:c#	*	*	*	*	*	*	*	*	*	*	*
!	!	!	!	!LO:LB:g=original	!	!	!	!	!	!	!	!	!	!	!
=48-	=48-	=48-	=48-	=48-	=48-	=48-	=48-	=48-	=48-	=48-	=48-	=48-	=48-	=48-	=48-
2.AA/	ſe-	.	.	2c#X\	ſe-	.	.	.	.	2.e\	ſe-	2a\	.	.	.
.	.	.	.	2c#\	-di-	.	.	.	.	.	.	2a\	-di-	.	.
4AA/	-di-	.	.	.	.	.	.	.	.	4e\	-di-	.	.	.	.
=49-	=49-	=49-	=49-	=49-	=49-	=49-	=49-	=49-	=49-	=49-	=49-	=49-	=49-	=49-	=49-
1D	-bus	1r	.	1d	-bus	1r	.	2d\	Huc	1A	-bus	1f#X	-bus	2dd\	Huc
.	.	.	.	.	.	.	.	4d\	ad-	.	.	.	.	4dd\	ad-
.	.	.	.	.	.	.	.	4A/	-ue-	.	.	.	.	4cc\	-ue-
=50-	=50-	=50-	=50-	=50-	=50-	=50-	=50-	=50-	=50-	=50-	=50-	=50-	=50-	=50-	=50-
1r	.	2G\	Huc	1r	.	2G/	Huc	2B/	-ni-	0r	.	2dd\	Huc	2b\	-ni-
.	.	4F#X\	ad-	.	.	4A/	ad-	2d\	-te	.	.	4dd\	ad-	2a\	-te
.	.	4F#\	-ue-	.	.	4A/	-ue-	.	.	.	.	4cc\	-ue-	.	.
=51-	=51-	=51-	=51-	=51-	=51-	=51-	=51-	=51-	=51-	=51-	=51-	=51-	=51-	=51-	=51-
*	*	*	*	*	*	*	*	*	*	*	*	*	*	*	*ij
2G\	Huc	2G\	-ni-	2G/	Huc	4.B\	-ni-	1.d	c[a]ę-	.	.	2b\	-ni-	2dd\	Huc
.	.	.	.	.	.	8c\	.	.	.	.	.	.	.	.	.
*	*	*	*	*	*	*custos:d	*	*	*	*	*	*	*	*	*
!	!	!	!	!	!	!LO:LB:g=original	!	!	!	!	!	!	!	!	!
4F#X\	ad-	2D/	-te	4A/	ad-	4d\	.	.	.	.	.	2a\	-te	4dd\	ad-
4F#\	-ue-	.	.	4A/	-ve-	4A/	-te	.	.	.	.	.	.	4cc\	-ue-
*	*	*	*ij	*	*	*	*	*	*	*	*	*	*	*custos:b	*
!	!	!	!	!	!	!	!	!	!	!	!	!	!	!LO:LB:g=original	!
=52-	=52-	=52-	=52-	=52-	=52-	=52-	=52-	=52-	=52-	=52-	=52-	=52-	=52-	=52-	=52-
2G\	-ni-	2G\	Huc	4G/	-ni-	4B\	c[a]ę-	.	.	2d\	Huc	1r	.	4.b\	-ni-
.	.	.	.	4B\	-te	8A/	.	.	.	.	.	.	.	.	.
.	.	.	.	.	.	8G/	.	.	.	.	.	.	.	8cc\	.
2D/	-te	4F#X\	ad-	4.A/	c[a]ę-	4A/	.	2d\	-li-	4d\	ad-	.	.	4dd\	.
.	.	4F#\	-ue-	.	.	4A/	-li-	.	.	4c/	-ue-	.	.	4a\	-te
.	.ij	.	.	8A/	-li-	.	.	.	.	.	.	.	.	.	.
*	*	*	*	*	*	*	*	*	*	*	*	*	*ij	*	*Xij
=53-	=53-	=53-	=53-	=53-	=53-	=53-	=53-	=53-	=53-	=53-	=53-	=53-	=53-	=53-	=53-
2G\	Huc	2G\	-ni-	4B\	-tes	2G/	-tes	1d	-tes	2B/	-ni-	2dd\	Huc	1r	.
*	*	*	*	*	*ij	*	*	*	*	*	*	*	*	*	*
.	.	.	.	4G/	Huc	.	.	.	.	.	.	.	.	.	.
4F#X\	ad-	2D/	-te	4A/	ad-	2r	.	.	.	2A/	-te	4dd\	ad-	.	.
4F#\	-ue-	.	.	4A/	-ve-	.	.	.	.	.	.	4cc\	-ue-	.	.
=54-	=54-	=54-	=54-	=54-	=54-	=54-	=54-	=54-	=54-	=54-	=54-	=54-	=54-	=54-	=54-
*	*	*	*Xij	*	*	*	*ij	*	*ij	*	*	*	*	*	*
2G\	-ni-	2G\	Huc	2B\	-ni-	2G/	Huc	2d\	Huc	1r	.	2b\	-ni-	2dd\	Huc
2D/	-te	4F#X\	ad-	2d\	-te	4A/	ad-	4d\	ad-	.	.	1a\	-te	4dd\	ad-
.	.	4F#\	-ue-	.	.	4A/	-ue-	4A/	-ue-	.	.	.	.	4cc\	-ve-
*	*Xij	*custos:G	*	*	*	*	*	*	*	*	*	*	*Xij	*	*
!	!	!LO:LB:g=original	!	!	!	!	!	!	!	!	!	!	!	!	!
=55-	=55-	=55-	=55-	=55-	=55-	=55-	=55-	=55-	=55-	=55-	=55-	=55-	=55-	=55-	=55-
2.GG/	c[a]ę-	2G\	-ni-	2.d\	c[a]ę-	2B\	-ni-	2.d\	-ni-	1.d	c[a]ę-	.	.	2b\	-ni-
.	.	2G\	-te	.	.	2d\	-te	.	.	.	.	1g\	c[a]ę-	2b\	-te
4GG/	-li-	.	.	4d\	-li-	.	.	4G/	-te	.	.	.	.	.	.
=56-	=56-	=56-	=56-	=56-	=56-	=56-	=56-	=56-	=56-	=56-	=56-	=56-	=56-	=56-	=56-
1D	-tes	2.D/	c[a]ę-	1d	-tes	2.d\	c[a]ę-	2A/	c[a]ę-	.	.	.	.	2.a\	cę-
.	.	.	.	.	.	.	.	2A/	-li-	2A/	-li-	2f#X/	-li-	.	.
.	.	4D/	-li-	.	.	4d\	-li-	.	.	.	.	.	.	4a\	-li-
=57-	=57-	=57-	=57-	=57-	=57-	=57-	=57-	=57-	=57-	=57-	=57-	=57-	=57-	=57-	=57-
2r	.	1GG	-tes	2r	.	2B\	-tes	2G/	-tes	1d	-tes	0g	-tes	1b	-tes
*	*	*	*	*	*Xij	*	*Xij	*	*Xij	*	*	*	*	*	*
2G\	Fu-	.	.	2d\	Fu-	2B\	Fu-	2g\	Fu-	.	.	.	.	.	.
*	*	*	*	*	*	*	*	*	*	*	*	*	*	*	*
=58-	=58-	=58-	=58-	=58-	=58-	=58-	=58-	=58-	=58-	=58-	=58-	=58-	=58-	=58-	=58-
2C/	ſtes	1r	.	2e\	ſtes	2c\	ſtes	2g\	ſtes	1r	.	.	.	1r	.
2E\	ca-	.	.	2cny\	ca-	2G/	ca-	2e\	ca-	.	.	.	.	.	.
*	*	*	*	*	*	*	*	*custos:f	*	*	*	*custos:dd	*	*	*
!	!	!	!	!	!	!	!	!LO:LB:g=original	!	!	!	!LO:LB:g=original	!	!	!
=59-	=59-	=59-	=59-	=59-	=59-	=59-	=59-	=59-	=59-	=59-	=59-	=59-	=59-	=59-	=59-
4D/	-te-	00r	.	4d\	-te-	4A/	-te-	4f\	-te-	0r	.	0r	.	0r	.
4C/	-nas	.	.	4e\	-cas	4c\	-nas	4g\	-nas	.	.	.	.	.	.
4.G\	car-	.	.	4.d\	car-	4.B\	car-	4.g\	car-	.	.	.	.	.	.
8G\	-ce-	.	.	8d\	-ce-	8B\	-ce	8g\	-ce-	.	.	.	.	.	.
*custos:G	*	*	*	*custos:d	*	*	*	*	*	*	*	*	*	*	*
!LO:LB:g=original	!	!	!	!LO:LB:g=original	!	!	!	!	!	!	!	!	!	!	!
=60-	=60-	=60-	=60-	=60-	=60-	=60-	=60-	=60-	=60-	=60-	=60-	=60-	=60-	=60-	=60-
4G\	-res	.	.	4d\	-res	4B\	-res	4g\	-res	.	.	.	.	.	.
4C/	et	.	.	4e\	et	4c\	et	4g\	et	.	.	.	.	.	.
4.Fny\	ſ[a]ę-	.	.	4.c\	ſ[a]ę-	4.A/	ſ[a]ę-	4.f\	ſ[a]ę-	.	.	.	.	.	.
8F\	-ua	.	.	8d\	-ua	8A/	-ua	8f\	-ua	.	.	.	.	.	.
*	*	*	*	*	*	*custos:G	*	*	*	*custos:d	*	*	*	*	*
!	!	!	!	!	!	!LO:LB:g=original	!	!	!	!LO:LB:g=original	!	!	!	!	!
=61-	=61-	=61-	=61-	=61-	=61-	=61-	=61-	=61-	=61-	=61-	=61-	=61-	=61-	=61-	=61-
4G\	fert	.	.	4B\	fert	4G/	fert	4d\	fert	2r	.	2r	.	2r	.
4E\	in-	.	.	4G/	in-	4G/	in-	4c/	in-	.	.	.	.	.	.
4.D/	-cer-	.	.	4.A/	-cer-	4.F#X/	-cer-	4.d\	-cer-	2.d\	Fu-	2dd\	Fu-	2a\	Fu-
8D/	-di-	.	.	8A/	-di-	8F#/	-di-	8d\	-di-	.	.	.	.	.	.
=62-	=62-	=62-	=62-	=62-	=62-	=62-	=62-	=62-	=62-	=62-	=62-	=62-	=62-	=62-	=62-
1GG	-a	.	.	1d	-a	1G	-a	1B	-a	.	.	2dd\	ſtes	2b\	-ſtes
.	.	.	.	.	.	.	.	.	.	2G/	ſtes	.	.	.	.
.	.	.	.	.	.	.	.	.	.	.	.	2d/	ca-	2dd\	ca-
.	.	.	.	.	.	.	.	.	.	4B/	ca-	.	.	.	.
=63-	=63-	=63-	=63-	=63-	=63-	=63-	=63-	=63-	=63-	=63-	=63-	=63-	=63-	=63-	=63-
0r	.	0r	.	1r	.	0r	.	0r	.	4A/	-te-	4e/	-te-	4cc\	-te-
.	.	.	.	.	.	.	.	.	.	4G/	-nas	4g/	-nas	4b\	-nas
.	.	.	.	.	.	.	.	.	.	4.d\	car-	4.f#X/	car-	4.a\	car-
.	.	.	.	.	.	.	.	.	.	8d\	-ce-	8f#/	-ce-	8a\	-ce-
=64-	=64-	=64-	=64-	=64-	=64-	=64-	=64-	=64-	=64-	=64-	=64-	=64-	=64-	=64-	=64-
.	.	.	.	4r	.	.	.	.	.	4d\	-res	4f#yX/	-res	4a\	-res
.	.	.	.	4G/	et	.	.	.	.	4d\	et	4g/	et	4b\	et
.	.	.	.	4.c\	ſ[a]ę-	.	.	.	.	4.e\	ſ[a]ę-	4.g/	ſ[a]ę-	4.cc\	ſ[a]e-
.	.	.	.	8c\	-ua	.	.	.	.	8e\	-va	8g/	-ua	8cc\	-ua
*	*	*	*	*	*	*	*	*	*	*	*	*	*	*custos:a	*
!	!	!	!	!	!	!	!	!	!	!	!	!	!	!LO:LB:g=original	!
=65-	=65-	=65-	=65-	=65-	=65-	=65-	=65-	=65-	=65-	=65-	=65-	=65-	=65-	=65-	=65-
1r	.	1r	.	4d\	fert	1r	.	1r	.	4d\	fert	4fny/	fert	4a\	fert
.	.	.	.	4B-X\	in-	.	.	.	.	4d\	in-	4d/	in-	4g/	in-
.	.	.	.	4.A/	-cen-	.	.	.	.	4.c#X/	-cen-	4.e/	-cen-	4.a\	-cen-
.	.	.	.	8A/	-di-	.	.	.	.	8c#/	-di-	8e/	-di-	8a\	-di-
=66-	=66-	=66-	=66-	=66-	=66-	=66-	=66-	=66-	=66-	=66-	=66-	=66-	=66-	=66-	=66-
2r	.	2r	.	1D	-a	2r	.	2r	.	1d	-a	1f#X	-a	1a	-a
2D/	Ex-	2D/	Ex-	.	.	2A/	Ex-	2d\	Ex-	.	.	.	.	.	.
=67-	=67-	=67-	=67-	=67-	=67-	=67-	=67-	=67-	=67-	=67-	=67-	=67-	=67-	=67-	=67-
2.D/	-ul-	2.F#X\	-ul-	0r	.	2.A/	-ul-	2.d\	-ul-	0r	.	0r	.	00r	.
4D/	-que	4F#\	-que	.	.	4A/	-que	4d\	-quæ	.	.	.	.	.	.
=68-	=68-	=68-	=68-	=68-	=68-	=68-	=68-	=68-	=68-	=68-	=68-	=68-	=68-	=68-	=68-
2C/	Pon-	2G\	Pon-	.	.	2c\	Pon-	2e\	Pon-	.	.	.	.	.	.
2AA/	-tum	2A\	-tum	.	.	2c\	-tum	2f\	-tum	.	.	.	.	.	.
=69-	=69-	=69-	=69-	=69-	=69-	=69-	=69-	=69-	=69-	=69-	=69-	=69-	=69-	=69-	=69-
2.C/	naui-	2.G\	na-	1r	.	2.c\	na-	2.e\	na-	1r	.	1r	.	.	.
4C/	-ga-	4G\	-ui-	.	.	4c\	-ui-	4e\	-vi-	.	.	.	.	.	.
=70-	=70-	=70-	=70-	=70-	=70-	=70-	=70-	=70-	=70-	=70-	=70-	=70-	=70-	=70-	=70-
1GG	-uit	2G\	-gat	2r	.	1B	-gat	1d	-gat	2r	.	2r	.	.	.
.	.	2G\	Ma-	2Bny\	Ma-	.	.	.	.	2d\	Ma-	2g/	Ma-	.	.
=71-	=71-	=71-	=71-	=71-	=71-	=71-	=71-	=71-	=71-	=71-	=71-	=71-	=71-	=71-	=71-
2r	.	4Fny\	-det-	4c\	-det-	2r	.	2r	.	4f\	-det-	4a\	-det-	2r	.
.	.	4D/	-que	4d\	-que	.	.	.	.	4f\	-que	4a\	-que	.	.
2G\	Ma-	2G\	to-	2B\	to-	2d\	Ma-	2d\	Ma-	2d\	to-	4.b\	to-	2g/	Ma-
.	.	.	.	.	.	.	.	.	.	.	.	8cc\	.	.	.
*	*	*	*	*	*	*	*	*	*	*	*	*custos:dd	*	*	*
!	!	!	!	!	!	!	!	!	!	!	!	!LO:LB:g=original	!	!	!
=72-	=72-	=72-	=72-	=72-	=72-	=72-	=72-	=72-	=72-	=72-	=72-	=72-	=72-	=72-	=72-
4F\	-det-	2D/	-tus	2A/	-tus	4d\	-det-	4f\	-det-	1d	-tus	1.dd	tus	4a\	-det-
4D/	-que	.	.	.	.	4d\	-que	4f\	-que	.	.	.	.	4a\	-que
*	*	*	*	*custos:G	*	*	*	*custos:g	*	*	*	*	*	*	*
!	!	!	!	!LO:LB:g=original	!	!	!	!LO:LB:g=original	!	!	!	!	!	!	!
2G\	to-	2.GG/	ſan-	4.G/	ſan-	1B\	to-	1g\	to-	.	.	.	.	4.b\	to-
.	.	.	.	8A/	.	.	.	.	.	.	.	.	.	8cc\	.
*custos:D	*	*	*	*	*	*	*	*	*	*	*	*	*	*	*
!LO:LB:g=original	!	!	!	!	!	!	!	!	!	!	!	!	!	!	!
=73-	=73-	=73-	=73-	=73-	=73-	=73-	=73-	=73-	=73-	=73-	=73-	=73-	=73-	=73-	=73-
2D/	-tus	.	.	4B\	.	.	.	.	.	2r	.	.	.	2dd\	-tus
.	.	4AA/	.	4c\	.	.	.	.	.	.	.	.	.	.	.
1D/	ſan-	4BB/	.	1d\	.	2G/	-tus	2d\	-tus	1g\	ſan-	2dd\	ſan-	2b\	ſan-
.	.	4GG/	.	.	.	.	.	.	.	.	.	.	.	.	.
*	*	*custos:D	*	*	*	*	*	*	*	*	*	*	*	*	*
!	!	!LO:LB:g=original	!	!	!	!	!	!	!	!	!	!	!	!	!
=74-	=74-	=74-	=74-	=74-	=74-	=74-	=74-	=74-	=74-	=74-	=74-	=74-	=74-	=74-	=74-
.	.	2D/	.	.	.	2.A/	ſan-	2.d\	ſan-	.	.	2.dd\	-qui-	2a\	.
2D/	-gui-	2D/	-gui-	2d\	-gui-	.	.	.	.	2f#X\	-gui-	.	.	2a\	-qui-
.	.	.	.	.	.	4A/	-qui-	4d\	-gui-	.	.	4dd\	.	.	.
*	*	*	*	*	*	*	*	*	*	*custos:g	*	*	*	*	*
!	!	!	!	!	!	!	!	!	!	!LO:LB:g=original	!	!	!	!	!
=75-	=75-	=75-	=75-	=75-	=75-	=75-	=75-	=75-	=75-	=75-	=75-	=75-	=75-	=75-	=75-
*	*	*	*	*	*	*	*	*	*	*	*	*	*	*	*
1D	-ne	0GG	-ne	0d	-ne	0G	-ne	0B	-ne	0g	-ne	0dd	-ne	0b	-ne
=76-	=76-	=76-	=76-	=76-	=76-	=76-	=76-	=76-	=76-	=76-	=76-	=76-	=76-	=76-	=76-
1r	.	.	.	.	.	.	.	.	.	.	.	.	.	.	.
=77-	=77-	=77-	=77-	=77-	=77-	=77-	=77-	=77-	=77-	=77-	=77-	=77-	=77-	=77-	=77-
00r	.	0C	O	0c	O	00r	.	00r	.	0e	.	0g	O	00r	.
*	*	*	*	*	*	*	*	*	*	*	*	*	*	*	*
=78-	=78-	=78-	=78-	=78-	=78-	=78-	=78-	=78-	=78-	=78-	=78-	=78-	=78-	=78-	=78-
.	.	.	.	.	.	.	.	.	.	.	.	.	.	.	.
=79-	=79-	=79-	=79-	=79-	=79-	=79-	=79-	=79-	=79-	=79-	=79-	=79-	=79-	=79-	=79-
.	.	1E	quas	1B	quas	.	.	.	.	1e	O	1g	quas	.	.
=80-	=80-	=80-	=80-	=80-	=80-	=80-	=80-	=80-	=80-	=80-	=80-	=80-	=80-	=80-	=80-
.	.	2E\	Ra-	1c	Ra-	.	.	.	.	2g\	quas	2e/	Ra-	.	.
.	.	1F/	-uen-	.	.	.	.	.	.	1fny\	Ra-	1a\	-uen-	.	.
=81-	=81-	=81-	=81-	=81-	=81-	=81-	=81-	=81-	=81-	=81-	=81-	=81-	=81-	=81-	=81-
0r	.	.	.	2A/	-uen-	0r	.	0r	.	.	.	.	.	00r	.
.	.	2C/	-na	2c\	-na	.	.	.	.	2e\	-uen-	2g/	-na	.	.
=82-	=82-	=82-	=82-	=82-	=82-	=82-	=82-	=82-	=82-	=82-	=82-	=82-	=82-	=82-	=82-
.	.	2.G\	gra-	2.B\	gra-	.	.	.	.	2.d\	-na	2.g/	gra-	.	.
.	.	4G\	-ti-	4B\	-ti-	.	.	.	.	4d\	gra-	4g/	-ti-	.	.
=83-	=83-	=83-	=83-	=83-	=83-	=83-	=83-	=83-	=83-	=83-	=83-	=83-	=83-	=83-	=83-
2r	.	1C	-as	1c	-as	2r	.	2r	.	2e\	-tias	0g	-as	.	.
2C/	Tan-	.	.	.	.	2E/	Tan-	2e\	Tan-	2cny/	Tan-	.	.	.	.
*	*	*	*	*	*	*custos:C	*	*	*	*	*	*	*	*	*
!	!	!	!	!	!	!LO:LB:g=original	!	!	!	!	!	!	!	!	!
=84-	=84-	=84-	=84-	=84-	=84-	=84-	=84-	=84-	=84-	=84-	=84-	=84-	=84-	=84-	=84-
2C/	-to	1r	.	1r	.	2C/	-to	2e\	-to	2G/	-to	.	.	.	.
2BB/	re-	.	.	.	.	2D/	re-	2d\	re-	2G/	re-	.	.	.	.
=85-	=85-	=85-	=85-	=85-	=85-	=85-	=85-	=85-	=85-	=85-	=85-	=85-	=85-	=85-	=85-
2AA/	-pen-	0r	.	0r	.	2E/	-pen-	2c/	-pen-	2A/	-pen-	00r	.	0r	.
2GG/	-des	.	.	.	.	2G/	-des	2B/	-des	2d\	-das	.	.	.	.
=86-	=86-	=86-	=86-	=86-	=86-	=86-	=86-	=86-	=86-	=86-	=86-	=86-	=86-	=86-	=86-
2.D/	Pr[a]ę-	.	.	.	.	2.F#X/	Præ-	2.A/	Præ-	2.d\	Pre-	.	.	.	.
4D/	-ſu-	.	.	.	.	4F#/	-ſu-	4A/	-ſu-	4d\	-ſu-	.	.	.	.
=87-	=87-	=87-	=87-	=87-	=87-	=87-	=87-	=87-	=87-	=87-	=87-	=87-	=87-	=87-	=87-
1GG	-li	2r	.	2r	.	1G	-li	1B	-li	2d\	-li	.	.	2r	.
.	.	2G\	Qui	2B\	Qui	.	.	.	.	2d\	Qui	.	.	2g/	Qui
=88-	=88-	=88-	=88-	=88-	=88-	=88-	=88-	=88-	=88-	=88-	=88-	=88-	=88-	=88-	=88-
1r	.	4.F\	de-	4.c\	de-	1r	.	1r	.	4.f\	de-	.	.	4.a\	de-
.	.	8F\	mo-	8c\	mo-	.	.	.	.	8f\	-mo-	.	.	8a\	-mo-
.	.	4F\	-num	4c\	-num	.	.	.	.	4f\	-num	.	.	4a\	-num
.	.	4E\	lu-	4e\	lu-	.	.	.	.	4g\	lu-	.	.	4cc\	lu-
=89-	=89-	=89-	=89-	=89-	=89-	=89-	=89-	=89-	=89-	=89-	=89-	=89-	=89-	=89-	=89-
2GG/	Qui	4.G\	-di-	4.d\	-di-	2G/	Qui	2g\	Qui	4.g\	-di-	2dd\	Qui	4.b\	-di-
.	.	8G\	-bri-	8d\	-bri-	.	.	.	.	8g\	-bri-	.	.	8b\	-bri-
4.C/	de-	2C/	-a	2c\	-a	4.G/	de-	4.g\	de-	2e\	-a	4.ee\	d[a]ę-	2cc\	-a
8C/	-mo-	.	.	.	.	8G/	-mo-	8g\	-mo-	.	.	8ee\	-mo-	.	.
*	*	*	*	*	*	*	*	*	*	*	*	*	*	*	*
=90-	=90-	=90-	=90-	=90-	=90-	=90-	=90-	=90-	=90-	=90-	=90-	=90-	=90-	=90-	=90-
4BB/	-num	1r	.	0r	.	2G/	-num	4g\	-num	1r	.	4dd\	-num	1r	.
4C/	lu	.	.	.	.	.	.	2e\	lu-	.	.	4cc\	lu-	.	.
4.E\	-di-	.	.	.	.	2G/	lu-	.	.	.	.	4b\	-di-	.	.
.	.	.	.	.	.	.	.	2g\	-di-	.	.	4g/	-bri-	.	.
8E\	-bir-	.	.	.	.	.	.	.	.	.	.	.	.	.	.
*	*	*	*	*	*	*	*	*	*	*	*	*	*	*custos:b	*
!	!	!	!	!	!	!	!	!	!	!	!	!	!	!LO:LB:g=original	!
=91-	=91-	=91-	=91-	=91-	=91-	=91-	=91-	=91-	=91-	=91-	=91-	=91-	=91-	=91-	=91-
2D/	-a	0r	.	.	.	4.d\	-di-	.	.	0r	.	2a\	-a	1r	.
.	.	.	.	.	.	.	.	4f#X\	-bri-	.	.	.	.	.	.
.	.	.	.	.	.	8d\	-bir-	.	.	.	.	.	.	.	.
*custos:C	*	*	*	*	*	*	*	*	*	*	*	*	*	*	*
!LO:LB:g=original	!	!	!	!	!	!	!	!	!	!	!	!	!	!	!
2r	.	.	.	.	.	2G/	-a	4g\	-a	.	.	4r	.	.	.
.	.	.	.	.	.	.	.	4g\	Tu-	.	.	4b\	Tu-	.	.
*	*	*	*	*	*	*	*	*custos:a	*	*	*	*	*	*	*
!	!	!	!	!	!	!	!	!LO:LB:g=original	!	!	!	!	!	!	!
=92-	=92-	=92-	=92-	=92-	=92-	=92-	=92-	=92-	=92-	=92-	=92-	=92-	=92-	=92-	=92-
1r	.	.	.	4r	.	1r	.	4a\	-is	.	.	4cc\	-is	4r	.
.	.	.	.	4G/	Tu-	.	.	4g\	fu-	.	.	4dd\	fu-	4b\	Tu-
*	*	*	*	*	*	*	*	*	*	*	*	*custos:dd	*	*	*
!	!	!	!	!	!	!	!	!	!	!	!	!LO:LB:g=original	!	!	!
.	.	.	.	4c\	-is	.	.	2.g\	-ga-	.	.	4ee\	-ga-	4cc\	-is
*	*	*	*	*	*	*	*	*	*	*	*	*	*	*	*
.	.	.	.	4B\	fu-	.	.	.	.	.	.	2dd\	-uit	4dd\	fu-
*	*	*	*	*custos:c	*	*	*	*	*	*	*	*	*	*	*
!	!	!	!	!LO:LB:g=original	!	!	!	!	!	!	!	!	!	!	!
=93-	=93-	=93-	=93-	=93-	=93-	=93-	=93-	=93-	=93-	=93-	=93-	=93-	=93-	=93-	=93-
00r	.	4r	.	2c\	-ga-	00r	.	.	.	1r	.	.	.	2ee\	-ga-
.	.	4E\	Tu-	.	.	.	.	4e\	-uit	.	.	2cc\	ſe-	.	.
.	.	4F\	-is	2d\	-uit	.	.	4a\	ſe-	.	.	.	.	2dd\	-uit
.	.	4G\	fu-	.	.	.	.	8g\	.	.	.	4b\	-di-	.	.
.	.	.	.	.	.	.	.	8fny\	.	.	.	.	.	.	.
*	*	*custos:A	*	*	*	*	*	*	*	*custos:e	*	*	*	*	*
!	!	!LO:LB:g=original	!	!	!	!	!	!	!	!LO:LB:g=original	!	!	!	!	!
=94-	=94-	=94-	=94-	=94-	=94-	=94-	=94-	=94-	=94-	=94-	=94-	=94-	=94-	=94-	=94-
.	.	2.A\	-ga-	2r	.	.	.	2e\	.	4r	.	1a	-bus	2.cc\	ſe-
.	.	.	.	.	.	.	.	.	.	4e\	Tu-	.	.	.	.
.	.	.	.	2.A/	ſe-	.	.	2A/	-di-	4f\	-is	.	.	.	.
.	.	4G\	.	.	.	.	.	.	.	4g\	fu-	.	.	4b\	.
=95-	=95-	=95-	=95-	=95-	=95-	=95-	=95-	=95-	=95-	=95-	=95-	=95-	=95-	=95-	=95-
.	.	2F\	.	.	.	.	.	1A	-bus	2a\	-ga-	0r	.	4a\	.
.	.	.	.	4B\	.	.	.	.	.	.	.	.	.	4g/	.
.	.	2F\	uit	1c\	.	.	.	.	.	2a\	-uit	.	.	4fny/	.
.	.	.	.	.	.	.	.	.	.	.	.	.	.	4e/	.
=96-	=96-	=96-	=96-	=96-	=96-	=96-	=96-	=96-	=96-	=96-	=96-	=96-	=96-	=96-	=96-
.	.	2.G\	ſe-	.	.	.	.	0r	.	2.g\	ſe-	.	.	2d/	.
.	.	.	.	2B\	-di-	.	.	.	.	.	.	.	.	2d/	-di-
.	.	4G\	-di-	.	.	.	.	.	.	4g\	-di-	.	.	.	.
=97-	=97-	=97-	=97-	=97-	=97-	=97-	=97-	=97-	=97-	=97-	=97-	=97-	=97-	=97-	=97-
1r	.	1C	-bus	1c	-bus	1r	.	.	.	1e	-bus	1r	.	1g	-bus
=98-	=98-	=98-	=98-	=98-	=98-	=98-	=98-	=98-	=98-	=98-	=98-	=98-	=98-	=98-	=98-
0C	Ad-	2r	.	0e	Ad-	4C/	Ad-	2.c/	Ad-	2.e\	Ad-	0cc	Ad-	0g	Ad-
.	.	.	.	.	.	4D/	.	.	.	.	.	.	.	.	.
.	.	2.C/	Ad-	.	.	4E/	.	.	.	.	.	.	.	.	.
.	.	.	.	.	.	4Fny/	.	4d\	.	4d\	.	.	.	.	.
=99-	=99-	=99-	=99-	=99-	=99-	=99-	=99-	=99-	=99-	=99-	=99-	=99-	=99-	=99-	=99-
.	.	.	.	.	.	2.G/	.	4e\	.	2c/	.	.	.	.	.
.	.	4D/	.	.	.	.	.	4f\	.	.	.	.	.	.	.
.	.	4E\	.	.	.	.	.	1g\	.	2G/	-ſis	.	.	.	.
.	.	4F\	.	.	.	4A/	.	.	.	.	.	.	.	.	.
=100-	=100-	=100-	=100-	=100-	=100-	=100-	=100-	=100-	=100-	=100-	=100-	=100-	=100-	=100-	=100-
0.GG	ſis	1G	.	2d\	ſis	4B\	.	.	.	2r	.	2b\	-ſis	1g	ſis
.	.	.	.	.	.	4c\	.	.	.	.	.	.	.	.	.
.	.	.	.	2B\	be-	2d\	.	2d\	ſis	4d\	Ad-	2g/	be-	.	.
.	.	.	.	.	.	.	.	.	.	4c/	.	.	.	.	.
=101-	=101-	=101-	=101-	=101-	=101-	=101-	=101-	=101-	=101-	=101-	=101-	=101-	=101-	=101-	=101-
.	.	1G	ſis	4d\	-ni-	0.d	.	1r	.	4B/	.	4g/	-ni-	2r	.
.	.	.	.	4c\	.	.	.	.	.	4A/	.	4a\	.	.	.
.	.	.	.	4B\	.	.	.	.	.	1G/	.	4b\	.	2g/	be-
.	.	.	.	4A/	.	.	.	.	.	.	.	4cc\	.	.	.
=102-	=102-	=102-	=102-	=102-	=102-	=102-	=102-	=102-	=102-	=102-	=102-	=102-	=102-	=102-	=102-
.	.	2r	.	2B\	.	.	.	2r	.	.	.	2dd\	.	4g/	-ni-
.	.	.	.	.	.	.	.	.	.	.	.	.	.	4a\	.
.	.	2D/	be-	2B\	-gno	.	.	2g\	be-	2G/	-ſis	4d/	gno-	4b\	.
.	.	.	.	.	.	.	.	.	.	.	.	4e/	.	4cc\	.
=103-	=103-	=103-	=103-	=103-	=103-	=103-	=103-	=103-	=103-	=103-	=103-	=103-	=103-	=103-	=103-
2r	.	4D/	-ni-	1.A	nu-	.	ſis	1.f	-ni-	2r	.	4fny/	.	1.dd	.
.	.	4E\	.	.	.	.	.	.	.	.	.	4g/	.	.	.
2D/	be-	4F\	.	.	.	.	.	.	.	2A/	be-	2a\	.	.	.
.	.	4G\	.	.	.	.	.	.	.	.	.	.	.	.	.
*	*	*	*	*	*	*custos:A	*	*	*	*	*	*	*	*	*
!	!	!	!	!	!	!LO:LB:g=original	!	!	!	!	!	!	!	!	!
=104-	=104-	=104-	=104-	=104-	=104-	=104-	=104-	=104-	=104-	=104-	=104-	=104-	=104-	=104-	=104-
1D	-ni-	2A\	.	.	.	2r	.	.	.	2d\	-ni-	2.a\	-nu-	.	.
.	.	2D/	-gno	2A/	-mi-	2A/	be-	2f\	-gno	2A/	-gno	.	.	2dd\	gno
.	.	.	.	.	.	.	.	.	.	.	.	4a\	-mi-	.	.
=105-	=105-	=105-	=105-	=105-	=105-	=105-	=105-	=105-	=105-	=105-	=105-	=105-	=105-	=105-	=105-
1AA	-gno	2.E\	nu-	1A	-ne	4A/	-ni-	1.e	nu-	1.c	nu-	1a	-ne	1.cc	nu-
.	.	.	.	.	.	4B\	.	.	.	.	.	.	.	.	.
.	.	.	.	.	.	4c\	.	.	.	.	.	.	.	.	.
.	.	4D/	.	.	.	4d\	.	.	.	.	.	.	.	.	.
=106-	=106-	=106-	=106-	=106-	=106-	=106-	=106-	=106-	=106-	=106-	=106-	=106-	=106-	=106-	=106-
1.C	nu-	4C/	.	2r	.	2e\	.	.	.	.	.	2r	.	.	.
.	.	4D/	.	.	.	.	.	.	.	.	.	.	.	.	.
.	.	4E\	.	2G/	be-	2c\	-gno	2e\	-mi-	2G/	-mi-	1cc\	No-	2cc\	-mi-
.	.	4F\	.	.	.	.	.	.	.	.	.	.	.	.	.
=107-	=107-	=107-	=107-	=107-	=107-	=107-	=107-	=107-	=107-	=107-	=107-	=107-	=107-	=107-	=107-
.	.	2G\	.	2.E/	-ni-	2.e\	nu-	1c	-ne	1G	ne	.	.	0g	-ne
2C/	-mi-	2C/	-mi-	.	.	.	.	.	.	.	.	2cc\	ſtro	.	.
.	.	.	.	4C/	-gno	4e\	-mi-	.	.	.	.	.	.	.	.
*	*	*custos:G	*	*	*	*	*	*	*	*	*	*	*	*	*
!	!	!LO:LB:g=original	!	!	!	!	!	!	!	!	!	!	!	!	!
=108-	=108-	=108-	=108-	=108-	=108-	=108-	=108-	=108-	=108-	=108-	=108-	=108-	=108-	=108-	=108-
0GG	-ne	1G	-ne	1.D	nu-	2d\	-ne	2r	.	2r	.	2.b\	De-	.	.
.	.	.	.	.	.	2D/	No-	1g\	No-	1d\	No-	.	.	.	.
.	.	.	.	.	.	.	.	.	.	.	.	4cc\	.	.	.
*	*	*	*	*	*	*	*	*	*	*	*	*	*	*custos:b	*
!	!	!	!	!	!	!	!	!	!	!	!	!	!	!LO:LB:g=original	!
=109-	=109-	=109-	=109-	=109-	=109-	=109-	=109-	=109-	=109-	=109-	=109-	=109-	=109-	=109-	=109-
.	.	2r	.	.	.	1G	-ſtro	.	.	.	.	1dd	.	1b	No-
.	.	1G\	No-	2D/	-mi-	.	.	2d\	ſtro	2B/	-ſtro	.	.	.	.
*	*	*	*	*	*	*	*	*	*	*custos:e	*	*	*	*	*
!	!	!	!	!	!	!	!	!	!	!LO:LB:g=original	!	!	!	!	!
=110-	=110-	=110-	=110-	=110-	=110-	=110-	=110-	=110-	=110-	=110-	=110-	=110-	=110-	=110-	=110-
*	*	*	*	*	*	*lig	*	*	*	*	*	*	*	*	*
1C	No-	.	.	1C	-ne	1.E	De-	0e	De-	2.e\	De-	2g/	us	2cc\	ſtro
.	.	1E\	ſtro	.	.	.	.	.	.	.	.	1cc\	No-	2g/	De-
.	.	.	.	.	.	.	.	.	.	4d\	.	.	.	.	.
*	*	*	*	*	*	*	*	*	*	*	*	*custos:a	*	*	*
!	!	!	!	!	!	!	!	!	!	!	!	!LO:LB:g=original	!	!	!
=111-	=111-	=111-	=111-	=111-	=111-	=111-	=111-	=111-	=111-	=111-	=111-	=111-	=111-	=111-	=111-
1AA	ſtro	.	.	1c	No-	.	.	.	.	4c/	.	.	.	2a\	-us
.	.	.	.	.	.	.	.	.	.	4B/	.	.	.	.	.
*	*	*	*	*	*	*col	*	*	*	*	*	*	*	*	*
*	*	*	*	*	*	*Xtuplet	*	*	*	*	*	*	*	*	*
.	.	1A\	De-	.	.	3A\	.	.	.	2c/	.	1a\	ſtro	2e/	con-
*	*	*	*	*	*	*Xlig	*	*	*	*	*	*	*	*	*
.	.	.	.	.	.	6G/	.	.	.	.	.	.	.	.	.
*	*	*	*	*	*	*Xcol	*	*	*	*	*	*	*	*	*
=112-	=112-	=112-	=112-	=112-	=112-	=112-	=112-	=112-	=112-	=112-	=112-	=112-	=112-	=112-	=112-
1D	De-	.	.	1A	ſtro	4F/	.	0d	-us	1d	-us	.	.	4f/	-cen-
.	.	.	.	.	.	4E/	.	.	.	.	.	.	.	4g/	.
.	.	1D\	-us	.	.	1F/	.	.	.	.	.	2dd\	De-	2.a\	.
*	*	*	*	*	*	*	*	*custos:c	*	*	*	*	*	*	*
!	!	!	!	!	!	!	!	!LO:LB:g=original	!	!	!	!	!	!	!
=113-	=113-	=113-	=113-	=113-	=113-	=113-	=113-	=113-	=113-	=113-	=113-	=113-	=113-	=113-	=113-
2BB-X/	-us	.	.	1B-X	De-	.	.	.	.	1r	.	2dd\	-us	.	.
.	.	.	.	.	.	.	.	.	.	.	.	.	.	4g/	.
*	*	*	*	*	*	*	*	*	*	*	*	*	*	*lig	*
2GG/	con-	2G\	con-	.	.	2G/	-us	.	.	.	.	2dd\	con-	1g\	.
*	*	*	*	*custos:A	*	*	*	*	*	*	*	*	*	*	*
!	!	!	!	!LO:LB:g=original	!	!	!	!	!	!	!	!	!	!	!
=114-	=114-	=114-	=114-	=114-	=114-	=114-	=114-	=114-	=114-	=114-	=114-	=114-	=114-	=114-	=114-
2.AA/	-cen-	1.C	-cen-	2A/	-us	2E/	con-	2r	.	2r	.	1.cc	-cen-	.	.
.	.	.	.	2A/	con-	2.C/	-cen-	2c/	con-	2c/	con-	.	.	1f/	.
4BBny/	.	.	.	.	.	.	.	.	.	.	.	.	.	.	.
*	*	*	*	*	*	*	*	*	*	*	*	*	*	*Xlig	*
=115-	=115-	=115-	=115-	=115-	=115-	=115-	=115-	=115-	=115-	=115-	=115-	=115-	=115-	=115-	=115-
1.C	.	.	.	1.G	-cen-	.	.	2c/	.	1.g	-cen-	.	.	.	.
.	.	.	.	.	.	4D/	.	.	.	.	.	.	.	.	.
.	.	2C/	.	.	.	4E/	.	2c/	-cen-	.	.	2cc\	-tu-	4e/	.
.	.	.	.	.	.	4F/	.	.	.	.	.	.	.	4d/	.
=116-	=116-	=116-	=116-	=116-	=116-	=116-	=116-	=116-	=116-	=116-	=116-	=116-	=116-	=116-	=116-
.	.	1C	-ti	.	.	2G/	.	1c	-ti	.	.	1cc	-i	2e/	.
2C/	-tu-	.	.	2G/	-tu-	2G/	-tu-	.	.	2c/	-tu-	.	.	2e/	-tu-
=117-	=117-	=117-	=117-	=117-	=117-	=117-	=117-	=117-	=117-	=117-	=117-	=117-	=117-	=117-	=117-
1FF	-i	2r	.	2Fny/	-i	1A	-i	2r	.	1c	-i	2r	.	1f	-i
.	.	2F\	Qui	2c\	Qui	.	.	2f\	Qui	.	.	2a\	Qui	.	.
=118-	=118-	=118-	=118-	=118-	=118-	=118-	=118-	=118-	=118-	=118-	=118-	=118-	=118-	=118-	=118-
1r	.	2.A\	Mar-	2.c\	Mar-	1r	.	2.e\	Mar-	1r	.	2.a\	Mar-	1r	.
.	.	4E\	-ty-	4Bny\	-ty-	.	.	4e\	-ty-	.	.	4g#X/	-ty-	.	.
=119-	=119-	=119-	=119-	=119-	=119-	=119-	=119-	=119-	=119-	=119-	=119-	=119-	=119-	=119-	=119-
0r	.	2E\	-ri	2B\	-ri	0r	.	2e\	-ri	0r	.	2g#yX/	-ri	0r	.
.	.	2F\	qui	2A/	qui	.	.	2c/	qui	.	.	2a\	qui	.	.
=120-	=120-	=120-	=120-	=120-	=120-	=120-	=120-	=120-	=120-	=120-	=120-	=120-	=120-	=120-	=120-
.	.	2.D/	Pr[a]ę-	2A/	Pr[a]ę-	.	.	2.d\	Pr[a]ę-	.	.	2.f/	Pr[a]ę	.	.
.	.	.	.	2B\	-ſu-	.	.	.	.	.	.	.	.	.	.
.	.	4D/	-ſu-	.	.	.	.	4d\	-ſu-	.	.	4f/	ſu-	.	.
=121-	=121-	=121-	=121-	=121-	=121-	=121-	=121-	=121-	=121-	=121-	=121-	=121-	=121-	=121-	=121-
2r	.	1C	-li	2c\	-li	2r	.	1G	-li	2r	.	1e	-li	2r	.
2C/	Qui	.	.	2G/	Qui	2c\	Qui	.	.	2e\	Qui	.	.	2cc\	Qui
*	*	*	*	*	*	*custos:c	*	*	*	*	*	*	*	*	*
!	!	!	!	!	!	!LO:LB:g=original	!	!	!	!	!	!	!	!	!
=122-	=122-	=122-	=122-	=122-	=122-	=122-	=122-	=122-	=122-	=122-	=122-	=122-	=122-	=122-	=122-
2.F\	Mar-	1r	.	2A/	Mar-	2.c\	Mar-	1r	.	2.f\	Mar-	1r	.	2.a\	Mar-
.	.	.	.	2F/	-ty-	.	.	.	.	.	.	.	.	.	.
4F\	-ty-	.	.	.	.	4c\	-ty-	.	.	4f\	-ty-	.	.	4a\	-ty-
*custos:C	*	*	*	*	*	*	*	*	*	*	*	*	*	*	*
!LO:LB:g=original	!	!	!	!	!	!	!	!	!	!	!	!	!	!	!
=123-	=123-	=123-	=123-	=123-	=123-	=123-	=123-	=123-	=123-	=123-	=123-	=123-	=123-	=123-	=123-
2C/	-ri	00r	.	2G/	-ri	2c\	-ri	0r	.	2e\	-ri	0r	.	2g/	-ri
2D/	qui	.	.	2D/	qui	2A/	qui	.	.	2d\	qui	.	.	2f#X/	qui
=124-	=124-	=124-	=124-	=124-	=124-	=124-	=124-	=124-	=124-	=124-	=124-	=124-	=124-	=124-	=124-
2.GG/	Pr[a]ę-	.	.	2.G/	Præ-	2.B-X\	Pr[a]ę-	.	.	2.d\	Pr[a]ę-	.	.	2.g/	Prę-
4GG/	ſu-	.	.	4G/	-ſu-	4B-\	ſu-	.	.	4d\	-ſu-	.	.	4g/	-ſu-
=125-	=125-	=125-	=125-	=125-	=125-	=125-	=125-	=125-	=125-	=125-	=125-	=125-	=125-	=125-	=125-
1D	-li	.	.	1F#X	-li	1A	-li	1r	.	1d	-li	2r	.	1a	-li
.	.	.	.	.	.	.	.	.	.	.	.	1a\	Ex	.	.
=126-	=126-	=126-	=126-	=126-	=126-	=126-	=126-	=126-	=126-	=126-	=126-	=126-	=126-	=126-	=126-
1D	Ex	.	.	2r	.	2r	.	1f#X	Ex	0d	Ex	.	.	1a	Ex
.	.	.	.	1D/	Ex	2d\	Ex	.	.	.	.	1dd\	Ho-	.	.
=127-	=127-	=127-	=127-	=127-	=127-	=127-	=127-	=127-	=127-	=127-	=127-	=127-	=127-	=127-	=127-
1.G	Ho-	1GG	Ex	.	.	2Bny\	Ho-	1g	Ho-	.	.	.	.	1b	Ho-
.	.	.	.	1G/	Ho-	2d\	ſte	.	.	.	.	2b\	ſte	.	.
=128-	=128-	=128-	=128-	=128-	=128-	=128-	=128-	=128-	=128-	=128-	=128-	=128-	=128-	=128-	=128-
.	.	1.C	Ho-	.	.	2.c\	das	2e\	-ſte	1e	-Hoſ-	1cc	das	1g	-ſte
2G\	ſte	.	.	2.E/	-ſte	.	.	1e\	das	.	.	.	.	.	.
.	.	.	.	.	.	8B\	.	.	.	.	.	.	.	.	.
.	.	.	.	.	.	8A\	.	.	.	.	.	.	.	.	.
=129-	=129-	=129-	=129-	=129-	=129-	=129-	=129-	=129-	=129-	=129-	=129-	=129-	=129-	=129-	=129-
1E	das	.	.	.	.	2G/	.	.	.	1c	-te	2r	.	1g	das
.	.	.	.	4Fny/	.	.	.	.	.	.	.	.	.	.	.
.	.	2C/	ſte	2G/	.	1E/	vi-	2e\	vi-	.	.	2ee\	vi-	.	.
*	*	*	*	*custos:A	*	*	*	*	*	*	*	*	*	*custos:a	*
!	!	!	!	!LO:LB:g=original	!	!	!	!	!	!	!	!	!	!LO:LB:g=original	!
=130-	=130-	=130-	=130-	=130-	=130-	=130-	=130-	=130-	=130-	=130-	=130-	=130-	=130-	=130-	=130-
2r	.	1AA	das	1A	das	.	.	2.c#X/	-cto-	2e\	das	2.ee\	-cto-	2r	.
2A\	vi-	.	.	.	.	2.e\	-cto-	.	.	2e\	vic-	.	.	2a\	vic-
.	.	.	.	.	.	.	.	4c#/	-ri-	.	.	4ee\	-ri-	.	.
*	*	*	*	*	*	*	*	*	*	*custos:e	*	*	*	*	*
!	!	!	!	!	!	!	!	!	!	!LO:LB:g=original	!	!	!	!	!
=131-	=131-	=131-	=131-	=131-	=131-	=131-	=131-	=131-	=131-	=131-	=131-	=131-	=131-	=131-	=131-
2.A\	-cto-	2r	.	1r	.	.	.	2cny/	-am	2.e\	-to-	1a	-am	2.ee\	-to-
.	.	.	.	.	.	4e\	-ri-	.	.	.	.	.	.	.	.
.	.	2A\	vi-	.	.	2A/	-am	2c/	vi-	.	.	.	.	.	.
4A\	-ri-	.	.	.	.	.	.	.	.	4e\	-ri-	.	.	4ee\	-ri-
*	*	*custos:A	*	*	*	*	*	*	*	*	*	*custos:dd	*	*	*
!	!	!LO:LB:g=original	!	!	!	!	!	!	!	!	!	!LO:LB:g=original	!	!	!
=132-	=132-	=132-	=132-	=132-	=132-	=132-	=132-	=132-	=132-	=132-	=132-	=132-	=132-	=132-	=132-
1D	-am	2.A\	-cto-	2r	.	2r	.	2.d\	-cto-	0f#X	-am	2r	.	2dd\	-am
*	*	*	*	*	*	*	*ij	*	*	*	*	*	*ij	*	*ij
.	.	.	.	2A/	vi-	2d\	vi-	.	.	.	.	2dd\	vi-	2a\	Vi-
.	.	4A\	-ri-	.	.	.	.	4d\	-ri-	.	.	.	.	.	.
*	*	*	*	*	*	*	*	*custos:d	*	*	*	*	*	*	*
!	!	!	!	!	!	!	!	!LO:LB:g=original	!	!	!	!	!	!	!
=133-	=133-	=133-	=133-	=133-	=133-	=133-	=133-	=133-	=133-	=133-	=133-	=133-	=133-	=133-	=133-
2r	.	0D	-am	2.A/	-cto-	2.d\	-cto-	1d	-am	.	.	2.dd\	-cto-	2.a\	-to-
2D/	vi-	.	.	.	.	.	.	.	.	.	.	.	.	.	.
.	.	.	.	4A/	-ri-	4d\	-ri-	.	.	.	.	4dd\	-ri-	4a\	-ri-
=134-	=134-	=134-	=134-	=134-	=134-	=134-	=134-	=134-	=134-	=134-	=134-	=134-	=134-	=134-	=134-
2.D/	-cto-	.	.	2F#X/	-am	2A/	-am	2r	.	2r	.	1dd	-am	2a\	-am
*	*	*	*ij	*	*ij	*	*	*	*ij	*	*	*	*	*	*
.	.	.	.	2A/	vi-	2A/	vi-	2f#X\	vi-	2d\	vi-	.	.	2dd\	Vi-
4D/	-ri-	.	.	.	.	.	.	.	.	.	.	.	.	.	.
=135-	=135-	=135-	=135-	=135-	=135-	=135-	=135-	=135-	=135-	=135-	=135-	=135-	=135-	=135-	=135-
1GG	-am	2r	.	2.G/	-cto-	2.B\	-cto-	2.g\	-cto-	2.d\	-cto-	0r	.	2.dd\	-cto-
.	.	2G\	vi-	.	.	.	.	.	.	.	.	.	.	.	.
.	.	.	.	4G/	-ri-	4B\	-ri-	4g\	-ri-	4d\	-ri-	.	.	4dd\	-ri-
*	*	*	*	*	*	*custos:c	*	*	*	*	*	*	*Xij	*	*
!	!	!	!	!	!	!LO:LB:g=original	!	!	!	!	!	!	!	!	!
=136-	=136-	=136-	=136-	=136-	=136-	=136-	=136-	=136-	=136-	=136-	=136-	=136-	=136-	=136-	=136-
2r	.	2.G\	-cto-	1C	-am	2c\	-am	2g\	-am	1e	-am	.	.	0cc	-am
*	*ij	*	*	*	*	*	*Xij	*	*	*	*	*	*	*	*
2C/	vi-	.	.	.	.	2G/	vi-	2g\	vi-	.	.	.	.	.	.
.	.	4G\	-ri-	.	.	.	.	.	.	.	.	.	.	.	.
*	*	*	*	*	*	*	*	*	*	*	*ij	*	*	*	*Xij
=137-	=137-	=137-	=137-	=137-	=137-	=137-	=137-	=137-	=137-	=137-	=137-	=137-	=137-	=137-	=137-
2.C/	-cto-	1E	-am	1r	.	2.G/	-cto-	2.g\	-cto-	2r	.	2r	.	.	.
.	.	.	.	.	.	.	.	.	.	2e\	vi-	2cc\	vi-	.	.
4C/	-ri-	.	.	.	.	4G/	-ri-	4g\	-ri-	.	.	.	.	.	.
*	*	*	*Xij	*	*	*	*	*	*	*	*	*	*	*	*
=138-	=138-	=138-	=138-	=138-	=138-	=138-	=138-	=138-	=138-	=138-	=138-	=138-	=138-	=138-	=138-
0AA	-am	2r	.	2r	.	1A	-am	1c	-am	2.e\	-cto-	2.cc\	-cto-	1r	.
.	.	2A\	vi-	2c\	vi-	.	.	.	.	.	.	.	.	.	.
.	.	.	.	.	.	.	.	.	.	4e\	-ri-	4cc\	-ri-	.	.
*	*Xij	*	*	*	*	*	*	*	*Xij	*	*	*	*	*	*
=139-	=139-	=139-	=139-	=139-	=139-	=139-	=139-	=139-	=139-	=139-	=139-	=139-	=139-	=139-	=139-
.	.	2.A\	-cto-	2.c\	-cto-	2r	.	1r	.	2e\	-am	1a	-am	2r	.
.	.	.	.	.	.	2A/	Ex	.	.	2e\	vi-	.	.	2a\	vi-
.	.	4A\	-ri-	4c\	-ri-	.	.	.	.	.	.	.	.	.	.
=140-	=140-	=140-	=140-	=140-	=140-	=140-	=140-	=140-	=140-	=140-	=140-	=140-	=140-	=140-	=140-
2r	.	1D	-am	1A	-am	2A/	Ho-	1d	Ex	2.f#X\	-cto-	2r	.	2.a\	-cto-
2D/	Ex	.	.	.	.	2D/	ſte	.	.	.	.	2a\	Ex	.	.
.	.	.	.	.	.	.	.	.	.	4f#\	-ri-	.	.	4a\	-ri-
*custos:D	*	*	*	*	*Xij	*	*	*	*	*	*	*	*	*	*
!LO:LB:g=original	!	!	!	!	!	!	!	!	!	!	!	!	!	!	!
=141-	=141-	=141-	=141-	=141-	=141-	=141-	=141-	=141-	=141-	=141-	=141-	=141-	=141-	=141-	=141-
2D/	Ho-	0r	.	2r	.	2A/	das	2d\	Ho-	2fny\	-am	2a\	Ho-	1d	-am
*	*	*	*	*	*	*	*	*	*	*	*Xij	*	*	*	*
2GG/	-ſte	.	.	2d\	Ex	2G/	vi-	2d\	ſte	2g\	Ex	2b\	-ſte	.	.
=142-	=142-	=142-	=142-	=142-	=142-	=142-	=142-	=142-	=142-	=142-	=142-	=142-	=142-	=142-	=142-
2BB/	das	.	.	2d\	Ho-	2.G/	-cto-	1G	das	2g\	Ho-	2dd\	das	0r	.
2C/	vi-	.	.	2e\	-ſte	.	.	.	.	2e\	-ſte	2cc\	vi-	.	.
.	.	.	.	.	.	4G/	-ri-	.	.	.	.	.	.	.	.
=143-	=143-	=143-	=143-	=143-	=143-	=143-	=143-	=143-	=143-	=143-	=143-	=143-	=143-	=143-	=143-
1.D	-cto-	2r	.	2.d\	das	1F#X	-am	2r	.	2A/	das	2.a\	-cto-	.	.
.	.	2A\	Ex	.	.	.	.	2d\	vi-	2A/	vi-	.	.	.	.
.	.	.	.	8c\	.	.	.	.	.	.	.	4a\	-ri-	.	.
.	.	.	.	8B\	.	.	.	.	.	.	.	.	.	.	.
=144-	=144-	=144-	=144-	=144-	=144-	=144-	=144-	=144-	=144-	=144-	=144-	=144-	=144-	=144-	=144-
.	.	2A\	Ho-	1A	.	1r	.	2.f#X\	-cto-	1.d	-cto-	1a	-am	2r	.
2D/	-ri-	2D/	ſte	.	.	.	.	.	.	.	.	.	.	2a\	Ex
.	.	.	.	.	.	.	.	4g\	.	.	.	.	.	.	.
=145-	=145-	=145-	=145-	=145-	=145-	=145-	=145-	=145-	=145-	=145-	=145-	=145-	=145-	=145-	=145-
1D	-am	2.F#X\	das	2r	.	2r	.	4a\	.	.	.	0r	.	2a\	Ho-
.	.	.	.	.	.	.	.	4d\	.	.	.	.	.	.	.
.	.	.	.	1A\	das	1D/	das	2.a\	.	2d\	-ri-	.	.	2d/	-ſte
.	.	4G\	vi-	.	.	.	.	.	.	.	.	.	.	.	.
=146-	=146-	=146-	=146-	=146-	=146-	=146-	=146-	=146-	=146-	=146-	=146-	=146-	=146-	=146-	=146-
2r	.	2A\	-cto-	.	.	.	.	.	.	00d	-am.	.	.	2f#X/	das
.	.	.	.	.	.	.	.	4g\	.	.	.	.	.	.	.
2GG/	vi-	2D/	-ri-	2B-X\	vi-	2d\	vi-	1g\	.	.	.	.	.	2g/	vi-
=147-	=147-	=147-	=147-	=147-	=147-	=147-	=147-	=147-	=147-	=147-	=147-	=147-	=147-	=147-	=147-
1.D	-cto-	00D	-am	1.A	-cto-	1.d	-cto-	.	.	.	.	2r	.	1.a	-cto-
.	.	.	.	.	.	.	.	4f#X\	.	.	.	2dd\	vi-	.	.
.	.	.	.	.	.	.	.	4e\	.	.	.	.	.	.	.
=148-	=148-	=148-	=148-	=148-	=148-	=148-	=148-	=148-	=148-	=148-	=148-	=148-	=148-	=148-	=148-
.	.	.	.	.	.	.	.	2f#X\	.	.	.	2.dd\	-cto-	.	.
2D/	-ri-	.	.	2A/	-ri-	2d\	-ri-	2f#\	-ri-	.	.	.	.	2a\	-ri-
.	.	.	.	.	.	.	.	.	.	.	.	4dd\	-ri-	.	.
=149-	=149-	=149-	=149-	=149-	=149-	=149-	=149-	=149-	=149-	=149-	=149-	=149-	=149-	=149-	=149-
!	!	!	!	!	!	!	!	!	!	!	!	!	!	!LO:N:acc=#	!
00GG	-am.	.	.	00G	-am.	00B	-am.	00g	-am.	.	.	00dd	-am.	00bn	-am.
=150-	=150-	=150-	=150-	=150-	=150-	=150-	=150-	=150-	=150-	=150-	=150-	=150-	=150-	=150-	=150-
.	.	.	.	.	.	.	.	.	.	1ryy	.	.	.	.	.
=151-	=151-	=151-	=151-	=151-	=151-	=151-	=151-	=151-	=151-	=151-	=151-	=151-	=151-	=151-	=151-
.	.	1ryy	.	.	.	.	.	.	.	1ryy	.	.	.	.	.
=152-	=152-	=152-	=152-	=152-	=152-	=152-	=152-	=152-	=152-	=152-	=152-	=152-	=152-	=152-	=152-
!LO:TX:b:t=Mott. Anibal Stabilis A 6.  M	!	!	!	!	!	!	!	!	!	!	!	!LO:TX:b:t=Mott. Anibal Stabilis A 6.  C	!	!	!
.	.	1ryy	.	.	.	.	.	.	.	1ryy	.	.	.	.	.
==	==	==	==	==	==	==	==	==	==	==	==	==	==	==	==
*-	*-	*-	*-	*-	*-	*-	*-	*-	*-	*-	*-	*-	*-	*-	*-
!!!system-decoration: [(s1,s2,s3,s4,s5,s6,s7,s8)]
!!!ENC: Marta Opryszak
!!!END: 2022-07-18
!!!ENC: Natalia Wrzos
!!!END: 2022-08-10
!!!YEC: Copyright 2022 Narodowy Instytut Fryderyka Chopina (https://polishscores.org)
!!!YEM: License CC-BY-4.0 (https://creativecommons.org/licenses/by/4.0)
